X:97
T:Salt Creek
C:Traditional
M:4/4
L:1/8
Q:1/8=450
K:A
|GAAA A2AA|BABc d2dA|BA=GA BBGA|BA=GF E4|
GAAA A2AA|BABc d2e2|efef =gfed|cABc A4|
GAAA A2AA|BABc d2dA|BA=GA BAGA|BA=GF E4|
GAAA A2AA|BABc d2e2|efef =gfed|cABc A4|
eaee a2ab|c'abc' a2ef|=gfga gfeg|fef=g fed2|
eaee a2ab|c'abc' a2ef|=gfga gfed|cABc A2ae|
eaee a2ab|c'abc' a2ef|=gfga gfeg|fef=g fedf|
eaee a2ab|c'abc' a2ef|=gfga gfed|cABc A4|
